!!!id: BC053
!!!page: 66
!!!COM: Schubert, Franz
!!!LYR: Do-Mi-Sol
!!!PTR@@FR: Les 100 plus belles chansons
!!!OTL@@FR: Ave Maria
!!!PUB: La Bonne Chanson, inc.
!!!PDT: 2011
!!!YEM: On ne peut reproduire, enregistrer ou diffuser en tout ou en partie le présent ouvrage, sous quelque procédé que ce soit, électronique, mécanique, photographique, sonore, magnétique ou autre, sans avoir obtenu au préalable l'autorisation écrite de l'éditrice.
!!!SMA: 2012 Bibliothèque nationale du Québec; Biblothèque nationale du Canada
!!!AGN-type: Chanson
!!!AGN-Laforte: 1:9(5+4/8/5)
!!!AGN-rhyme: irregular (xa1xb1,a2-b1a1x)
!!!RNB: Full rest measures have not been encoded and measure numbering has been adjusted.
**kern	**dynam	**text
*clefG2	*	*
*k[b-e-]	*	*
*B-:	*	*
!!LO:TX:a:t=Très lent 
*M4/4	*	*
*met(c)	*	*v:1
*	*	*pline:1Ha
=1	=1	=1
{{4b-.	<	A-
16a	(	-ve
16b-	[	Ma-
(4dd..	>	-ri-
16cc)	]	.
=2	=2	=2
4b-	.	-a!
4r}	.	.
*	*	*pline:1Hb
{(>4cc	.	Rei-
q16ddL	.	.
q16ccJ)	.	.
(16b-L	.	-ne
16aJ)	.	.
(16gL	.	des
16aJ)	.	.
!!LO:PB:g=original
=3	=3	=3
4b-	.	cieux,
8r}}	.	.
*	*	*rp:œ
*	*	*rf:x
*	*	*rs:x
*	*	*pline:2
{{8dd	.	Vers
8dd.	.	Toi
(32ccL	.	s'é-
32b-J)	<	.
16a	(	-lè-
16g	(	-ve
16dd.	(	ma
32ee	(	pri-
.	[	.
=4	=4	=4
(4dd	>	-è-
8cc.#)}	)	-re,
*	*	*rp:ɛː
*	*	*rf:ɛːʁ,ə
*	*	*rs:a1
*	*	*pline:3
{16a	]	En-
8.cc	.	-tends
16b-	.	la
*Xbrackettup	*	*
((24aL	.	voix
24ccJ)	.	.
24dd)	.	de
((24ee-L	.	ton
24ccJ)	.	.
24a)	.	en-
!!LO:PB:g=original
=5	=5	=5
[4b-	.	-fant;
*	*	*rp:ɑ̃
*	*	*rf:x
*	*	*rs:x
8b-]}}	.	.
*	*	*pline:4
{{16dd	.	Con-
16cc	.	-fi-
8.cc	.	-ant,
16a	<	j'im-
((24gL	(	-plo-
24bJ)	(	.
24dd)	(	-re
((24ffL	(	ton
24ddJ)	(	.
24b)	(	se-
.	[	.
=6	=6	=6
([4cc	>	-cours:
*	*	*rp:u
*	*	*rf:uʁ
*	*	*rs:b1
(24cc]	)	.
*	*	*pline:5
24g	]	Don-
24a)	.	-ne-
((<(24b-XL	.	-moi
q16ccL	.	.
q16b-J	.	.
24aJ)	.	.
24g)	.	la
!the tuplet should be next to the beam	!	!
4f	.	paix!
*	*	*rp:ɛ
*	*	*rf:pɛ
*	*	*rs:a2-
8r]}}	.	.
*	*	*pline:6
{{8f	.	Mon
!!LO:PB:g=original
=7	=7	=7
8cc.	.	cœur
16cc	.	meur-
16.cc	.	-tri
32b	.	par
16.cc	.	la
32dd	.	mi-
(16.ccL	.	-sè-
32ddJ)	.	.
8b-	.	-re
*	*	*rp:ɛː
*	*	*rf:ɛːʁ,ə
*	*	*rs:a1
8r}	.	.
*	*	*pline:7
{8b-	.	N'a
=8	=8	=8
8.cc	.	plus
16cc	.	d'es-
((24ccL	<	-poir
24bJ)	(	.
24cc)	(	qu'en
.	[	.
((24ee-L	.	ton
24ddJ)	.	.
24cc)	>	a-
4b-	]	-mour.
*	*	*rp:u
*	*	*rf:uʁ
*	*	*rs:b1
8r}}	.	.
*	*	*pline:8
{{8b-	.	Pi-
!!LO:PB:g=original
=9	=9	=9
8.cc	<	-tié!
*	*	*bis
16cc	(	Pi-
16.dd	(	-tié!
*	*	*Xbis
32dd	(	O
((24ddmL	[	bon-
24ccJ)	.	.
24dd)	.	-ne
(16.ffL	>	Mè-
32ee-J)	)	.
8ee-	]	-re
*	*	*rp:ɛː
*	*	*rf:ɛːʁ,ə
*	*	*rs:a1
8.r}	.	.
*	*	*pline:9
{16g	.	Con-
=10	=10	=10
(q8dd	<	.
8.cc~)	(	-duis
16cc	(	mes
((24b-L	[	pas
24aJ)	.	.
24b-)	.	vers
((24dd-L	.	ton
24ccJ)	>	.
24b-)	)	Jé-
[4cc	]	-sus.
*	*	*rp:y
*	*	*rf:x
*	*	*rs:x
8cc]	.	.
8r}}	.	.
!!LO:PB:g=original
=11	=11	=11
*	*	*pline:1Har
{4.b-	<	A-
16a	[	-ve
16b-	.	Ma-
(4..dd	>	-ri-
16cc)	]	.
=12	=12	=12
4b-/	.	-a!
4r	.	.
2r}	.	.
==	==	==
*-	*-	*-
!!!RDF**kern: > = below
!!!RDF**kern: < = above
!!!EED:Jason Lau
!!!EEV:2025/07/22
!!!EED: Ève Poudrier
!!!EEV: 2025/07/29
